images/cotacao/cotton.svg

<?xml version="1.0" encoding="UTF-8"?> <svg xmlns="http://www.w3.org/2000/svg" height="512pt" viewBox="0 0 512 512" width="512pt"><path d="m397.648438 132.09375c-5.105469-73.695312-66.679688-132.09375-141.648438-132.09375-22.988281 0-45.828125 5.625-66.042969 16.261719-4.886719 2.574219-6.765625 8.621093-4.191406 13.507812 2.570313 4.886719 8.621094 6.765625 13.503906 4.191407 17.355469-9.132813 36.972657-13.960938 56.730469-13.960938 64.246094 0 117.046875 49.917969 121.667969 113.003906-10.859375 1.40625-21.386719 4.296875-31.476563 8.65625-24.070312-22.082031-56.003906-35.144531-90.191406-35.144531-34.71875 0-66.378906 13.347656-90.125 35.171875-10.109375-4.378906-20.660156-7.273438-31.539062-8.683594 1.164062-16.265625 5.5-31.847656 12.953124-46.433594 2.511719-4.917968.5625-10.941406-4.355468-13.457031-4.917969-2.511719-10.941406-.5625-13.453125 4.355469-8.769531 17.15625-13.832031 35.492188-15.132813 54.621094-63.453125 2.359375-114.347656 54.707031-114.347656 118.726562 0 30.300782 11.40625 59.15625 32.121094 81.25 19.511718 20.808594 45.511718 33.777344 73.652344 36.851563 19.082031 24.832031 52.273437 41.195312 98.792968 48.660156 6.554688 1.050781 12.003906 5.8125 13.882813 12.136719 5.011719 16.855468 7.550781 34.304687 7.550781 51.871094v20.414062c0 5.523438 4.476562 10 10 10h40c5.523438 0 10-4.476562 10-10v-20.417969c0-16.976562 2.371094-33.863281 7.050781-50.1875 1.9375-6.75 7.617188-11.738281 14.476563-12.707031 47.15625-6.640625 80.511718-23.195312 99.132812-49.199219.160156-.222656.304688-.445312.460938-.667969 27.789062-3.25 53.441406-16.160156 72.742187-36.738281 20.722657-22.097656 32.136719-50.957031 32.136719-81.265625 0-64.019531-50.898438-116.367187-114.351562-118.722656zm-92.910157 266.789062c-14.671875 2.066407-26.804687 12.664063-30.914062 27-5.191407 18.117188-7.824219 36.855469-7.824219 55.699219v10.417969h-20v-10.417969c0-19.492187-2.820312-38.863281-8.378906-57.566406-4.054688-13.644531-15.785156-23.925781-29.886719-26.1875-42.75-6.855469-72.253906-21.429687-87.730469-43.304687-.304687-.550782-.664062-1.070313-1.066406-1.550782-3.480469-5.226562-5.878906-10.402344-7.492188-15.257812 14.308594 7.214844 33.847657 8.167968 58.230469 2.820312 54.257813-11.890625 72.917969 33.683594 73.671875 35.589844 1.460938 3.800781 5.082032 6.335938 9.152344 6.40625l3.375.0625c4.042969.074219 7.757812-2.34375 9.371094-6.058594.832031-1.914062 20.996094-46.769531 74.804687-32.9375 24.207031 6.21875 43.785157 5.960938 58.328125-.75-1.058594 2.867188-2.40625 5.84375-4.09375 8.863282-1.621094 1.355468-2.800781 3.203124-3.308594 5.300781-.273437.394531-.542968.789062-.828124 1.179687-15.378907 21.1875-44.117188 34.878906-85.410157 40.691406zm-73.515625-67.316406c.09375-11.378906 2.363282-46.394531 24.742188-83.4375 20.070312 34.082032 23.851562 70.660156 24.558594 83.304688-4.355469 2.550781-8.15625 5.34375-11.414063 8.121094-6.171875 5.261718-10.9375 10.90625-14.449219 15.808593-3.339844-5.027343-7.917968-10.839843-13.914062-16.328125-2.753906-2.519531-5.929688-5.066406-9.523438-7.46875zm187.046875 14.839844c5.984375-18.796875 3.285157-33.800781 3.121094-34.664062-.921875-4.851563-5.195313-8.511719-10.152344-8.332032-4.902343.175782-8.921875 3.679688-9.539062 8.53125-.203125.875-1.8125 6.8125-8.71875 11.136719-6.960938 4.359375-20.925781 8.09375-47.949219 1.148437-17.738281-4.558593-32.679688-3.992187-45.011719-.820312-1.878906-20.617188-9.007812-62.5-35.949219-99.3125-1.886718-2.574219-4.882812-4.09375-8.070312-4.09375-.007812 0-.015625 0-.019531 0-3.199219.007812-6.199219 1.539062-8.074219 4.128906-28.226562 38.890625-34.925781 77.609375-36.355469 98.007813-12.425781-3.882813-27.714843-5.179688-46.160156-1.136719-27.226563 5.96875-41.0625 1.738281-47.878906-2.863281-6.785157-4.582031-8.195313-10.589844-8.371094-11.472657-.453125-4.871093-4.351563-8.507812-9.246094-8.84375-4.921875-.34375-9.339843 3.167969-10.421875 7.984376-.214844.949218-4.046875 18.839843 3.8125 40.488281-42.316406-11.332031-73.285156-50.167969-73.285156-95.476563 0-54.488281 44.328125-98.816406 98.816406-98.816406 11.214844 0 22.078125 1.835938 32.441406 5.449219-17.890624 22.691406-28.574218 51.316406-28.574218 82.386719 0 5.523437 4.476562 10 10 10 5.523437 0 10-4.476563 10-10 0-62.484376 50.832031-113.316407 113.316406-113.316407 31.101562 0 60.007812 12.71875 80.875 33.945313.109375.113281.21875.222656.332031.335937 11.394531 11.6875 20.371094 25.921875 25.933594 42.03125 1.804687 5.222657 7.496094 7.996094 12.71875 6.1875 5.21875-1.800781 7.988281-7.496093 6.1875-12.714843-4.953125-14.335938-12.207031-27.402344-21.242187-38.878907 10.34375-3.597656 21.183593-5.425781 32.378906-5.425781 54.488281 0 98.816406 44.328125 98.816406 98.816406 0 45.472656-31.183594 84.414063-73.730469 95.589844zm0 0"></path><path d="m379.273438 229.5c-5.523438.023438-9.980469 4.519531-9.957032 10.042969v.292969c0 5.523437 4.476563 10 10 10 5.523438 0 10-4.476563 10-10v-.378907c-.023437-5.523437-4.5-9.960937-10.042968-9.957031zm0 0"></path><path d="m162.121094 59.191406c2.640625 0 5.207031-1.0625 7.070312-2.929687 1.867188-1.863281 2.929688-4.433594 2.929688-7.070313 0-2.632812-1.0625-5.210937-2.929688-7.070312-1.863281-1.859375-4.429687-2.929688-7.070312-2.929688-2.632813 0-5.210938 1.070313-7.070313 2.929688s-2.921875 4.4375-2.921875 7.070312c0 2.628906 1.0625 5.207032 2.921875 7.070313 1.859375 1.867187 4.4375 2.929687 7.070313 2.929687zm0 0"></path></svg>

<svg width="512" height="512" viewBox="0 0 512 512" fill="none" xmlns="http://www.w3.org/2000/svg">
<g clip-path="url(#clip0)">
<path d="M397.648 132.094C392.543 58.3984 330.969 0 256 0C233.012 0 210.172 5.625 189.957 16.2617C185.07 18.8359 183.191 24.8828 185.766 29.7695C188.336 34.6563 194.387 36.5352 199.27 33.9609C216.625 24.8281 236.242 20 256 20C320.246 20 373.047 69.918 377.668 133.004C366.809 134.41 356.281 137.301 346.191 141.66C322.121 119.578 290.188 106.516 256 106.516C221.281 106.516 189.621 119.863 165.875 141.688C155.766 137.309 145.215 134.414 134.336 133.004C135.5 116.738 139.836 101.156 147.289 86.5703C149.801 81.6523 147.852 75.6289 142.934 73.1133C138.016 70.6016 131.992 72.5508 129.48 77.4688C120.711 94.625 115.648 112.961 114.348 132.09C50.8945 134.449 0 186.797 0 250.816C0 281.117 11.4062 309.973 32.1211 332.066C51.6328 352.875 77.6328 365.844 105.773 368.918C124.855 393.75 158.047 410.113 204.566 417.578C211.121 418.629 216.57 423.391 218.449 429.715C223.461 446.57 226 464.02 226 481.586V502C226 507.523 230.477 512 236 512H276C281.523 512 286 507.523 286 502V481.582C286 464.605 288.371 447.719 293.051 431.395C294.988 424.645 300.668 419.656 307.527 418.688C354.684 412.047 388.039 395.492 406.66 369.488C406.82 369.266 406.965 369.043 407.121 368.82C434.91 365.57 460.562 352.66 479.863 332.082C500.586 309.984 512 281.125 512 250.816C512 186.797 461.102 134.449 397.648 132.094V132.094ZM304.738 398.883C290.066 400.949 277.934 411.547 273.824 425.883C268.633 444 266 462.738 266 481.582V492H246V481.582C246 462.09 243.18 442.719 237.621 424.016C233.566 410.371 221.836 400.09 207.734 397.828C164.984 390.973 135.48 376.398 120.004 354.523C119.699 353.973 119.34 353.453 118.938 352.973C115.457 347.746 113.059 342.57 111.445 337.715C125.754 344.93 145.293 345.883 169.676 340.535C223.934 328.645 242.594 374.219 243.348 376.125C244.809 379.926 248.43 382.461 252.5 382.531L255.875 382.594C259.918 382.668 263.633 380.25 265.246 376.535C266.078 374.621 286.242 329.766 340.051 343.598C364.258 349.816 383.836 349.559 398.379 342.848C397.32 345.715 395.973 348.691 394.285 351.711C392.664 353.066 391.484 354.914 390.977 357.012C390.703 357.406 390.434 357.801 390.148 358.191C374.77 379.379 346.031 393.07 304.738 398.883V398.883ZM231.223 331.566C231.316 320.188 233.586 285.172 255.965 248.129C276.035 282.211 279.816 318.789 280.523 331.434C276.168 333.984 272.367 336.777 269.109 339.555C262.938 344.816 258.172 350.461 254.66 355.363C251.32 350.336 246.742 344.523 240.746 339.035C237.992 336.516 234.816 333.969 231.223 331.566V331.566ZM418.27 346.406C424.254 327.609 421.555 312.605 421.391 311.742C420.469 306.891 416.195 303.23 411.238 303.41C406.336 303.586 402.316 307.09 401.699 311.941C401.496 312.816 399.887 318.754 392.98 323.078C386.02 327.438 372.055 331.172 345.031 324.227C327.293 319.668 312.352 320.234 300.02 323.406C298.141 302.789 291.012 260.906 264.07 224.094C262.184 221.52 259.188 220 256 220C255.992 220 255.984 220 255.98 220C252.781 220.008 249.781 221.539 247.906 224.129C219.68 263.02 212.98 301.738 211.551 322.137C199.125 318.254 183.836 316.957 165.391 321C138.164 326.969 124.328 322.738 117.512 318.137C110.727 313.555 109.316 307.547 109.141 306.664C108.688 301.793 104.789 298.156 99.8945 297.82C94.9727 297.477 90.5547 300.988 89.4727 305.805C89.2578 306.754 85.4258 324.645 93.2852 346.293C50.9688 334.961 20 296.125 20 250.816C20 196.328 64.3281 152 118.816 152C130.031 152 140.895 153.836 151.258 157.449C133.367 180.141 122.684 208.766 122.684 239.836C122.684 245.359 127.16 249.836 132.684 249.836C138.207 249.836 142.684 245.359 142.684 239.836C142.684 177.352 193.516 126.52 256 126.52C287.102 126.52 316.008 139.238 336.875 160.465C336.984 160.578 337.094 160.688 337.207 160.801C348.602 172.488 357.578 186.723 363.141 202.832C364.945 208.055 370.637 210.828 375.859 209.02C381.078 207.219 383.848 201.523 382.047 196.305C377.094 181.969 369.84 168.902 360.805 157.426C371.148 153.828 381.988 152 393.184 152C447.672 152 492 196.328 492 250.816C492 296.289 460.816 335.23 418.27 346.406Z" fill="black"/>
<path d="M379.274 229.5C373.75 229.523 369.293 234.02 369.316 239.543V239.836C369.316 245.359 373.793 249.836 379.316 249.836C384.84 249.836 389.316 245.359 389.316 239.836V239.457C389.293 233.934 384.816 229.496 379.274 229.5Z" fill="black"/>
<path d="M162.121 59.1914C164.762 59.1914 167.328 58.1289 169.191 56.2617C171.059 54.3984 172.121 51.8281 172.121 49.1914C172.121 46.5586 171.059 43.9805 169.191 42.1211C167.328 40.2617 164.762 39.1914 162.121 39.1914C159.488 39.1914 156.91 40.2617 155.051 42.1211C153.191 43.9805 152.129 46.5586 152.129 49.1914C152.129 51.8203 153.191 54.3984 155.051 56.2617C156.91 58.1289 159.488 59.1914 162.121 59.1914Z" fill="black"/>
</g>
<defs>
<clipPath id="clip0">
<rect width="512" height="512" fill="white"/>
</clipPath>
</defs>
</svg>
